icon-svg/movistar-plus.svg

<svg xmlns="http://www.w3.org/2000/svg" fill="#44739e" viewBox="0 0 24 24"><path d="M20.89 10.523h-1.109V8.3h-1.813v2.22h-2.219v1.844h2.219v2.219h1.813v-.992c0-.546.009-1.046.02-1.11l.019-.117H22v-1.841ZM12 6.914c-.922.2-1.363.757-2.163 2.733-.537 1.353-.658 1.53-1.074 1.686-.614.231-1.142-.079-1.748-1.029-1.076-1.685-1.488-2.13-2.134-2.3-2.169-.565-3.527 2.729-2.569 6.228.463 1.688.905 2.262 1.538 2 .483-.2.482-.589 0-2.182-.433-1.418-.372-2.089.191-2.089.287 0 .4.152 1.321 1.766.712 1.248.828 1.412 1.212 1.717a2.563 2.563 0 0 0 3.225-.179c.38-.386.486-.612.892-1.9.658-2.08 1.185-2.934 1.813-2.937.594 0 .748.583.59 2.258-.131 1.4 0 1.773.605 1.773.716 0 1.022-.849 1.023-2.838C14.719 8.43 13.64 6.558 12 6.914"/></svg>

<?xml version="1.0" encoding="UTF-8"?>
<!DOCTYPE svg PUBLIC "-//W3C//DTD SVG 1.1//EN" "http://www.w3.org/Graphics/SVG/1.1/DTD/svg11.dtd">
<svg xmlns="http://www.w3.org/2000/svg" xmlns:xlink="http://www.w3.org/1999/xlink" fill="#44739e" version="1.1" id="mdi-google-home" width="32" height="32" viewBox="0 0 24 24">
<path d="M 20.89,10.523 H 19.781 V 8.3 h -1.813 v 2.22 h -2.219 v 1.844 h 2.219 v 2.219 h 1.813 v -0.992 c 0,-0.546 0.009,-1.046 0.02,-1.11 L 19.82,12.364 H 22 V 10.523 Z M 12,6.914 C 11.078,7.114 10.637,7.671 9.837,9.647 9.3,11 9.179,11.177 8.763,11.333 8.149,11.564 7.621,11.254 7.015,10.304 5.939,8.619 5.527,8.174 4.881,8.004 2.712,7.439 1.354,10.733 2.312,14.232 c 0.463,1.688 0.905,2.262 1.538,2 0.483,-0.2 0.482,-0.589 0,-2.182 -0.433,-1.418 -0.372,-2.089 0.191,-2.089 0.287,0 0.4,0.152 1.321,1.766 0.712,1.248 0.828,1.412 1.212,1.717 a 2.563,2.563 0 0 0 3.225,-0.179 c 0.38,-0.386 0.486,-0.612 0.892,-1.9 0.658,-2.08 1.185,-2.934 1.813,-2.937 0.594,0 0.748,0.583 0.59,2.258 -0.131,1.4 0,1.773 0.605,1.773 0.716,0 1.022,-0.849 1.023,-2.838 C 14.719,8.43 13.64,6.558 12,6.914 Z" />
</svg>
